svg/fluentui-system-icons/ic_fluent_swipe_up_20_regular.svg

<svg width="20" height="20" viewBox="0 0 20 20" fill="none" xmlns="http://www.w3.org/2000/svg">
<path d="M10.3536 2.14645C10.1583 1.95118 9.84171 1.95118 9.64645 2.14645L6.64645 5.14645C6.45118 5.34171 6.45118 5.65829 6.64645 5.85355C6.84171 6.04882 7.15829 6.04882 7.35355 5.85355L9.5 3.70711V14.5C9.5 14.7761 9.72386 15 10 15C10.2761 15 10.5 14.7761 10.5 14.5V3.70711L12.6464 5.85355C12.8417 6.04882 13.1583 6.04882 13.3536 5.85355C13.5488 5.65829 13.5488 5.34171 13.3536 5.14645L10.3536 2.14645ZM6 14C6 12.3213 7.03408 10.8842 8.5 10.2908V11.4014C7.6033 11.9201 7 12.8896 7 14C7 15.6569 8.34315 17 10 17C11.6569 17 13 15.6569 13 14C13 12.8896 12.3967 11.9201 11.5 11.4014V10.2908C12.9659 10.8842 14 12.3213 14 14C14 16.2092 12.2091 18 10 18C7.79086 18 6 16.2092 6 14Z" fill="#212121"/>
</svg>

<svg xmlns="http://www.w3.org/2000/svg" width="20" height="20"><path d="M10.354 2.146a.5.5 0 0 0-.708 0l-3 3a.5.5 0 1 0 .708.708L9.5 3.707V14.5a.5.5 0 0 0 1 0V3.707l2.146 2.147a.5.5 0 0 0 .708-.708l-3-3ZM6 14a4.001 4.001 0 0 1 2.5-3.71v1.111a3 3 0 1 0 3 0v-1.11A4.001 4.001 0 0 1 10 18a4 4 0 0 1-4-4Z"/></svg>
